X:1
T:6 Lieder, Op.1
T:Warum sind denn die Rosen so blass?
T:3. Warum sind denn die Rosen so blass?
T:Fanny (Mendelssohn) Hensel
T:Heinrich Heine
T:6 Lieder, Op.1
T:OpenScore (CC0)
T:OpenScore (CC0)
T:OpenScore (CC0)
C:Fanny (Mendelssohn) Hensel
Z:Heinrich Heine
Z:OpenScore (CC0)
%%score 1 { 2 | 3 }
L:1/8
Q:1/4=120
M:6/8
K:C
V:1 treble nm="Gesang\nVoice"
V:2 treble nm="Piano"
V:3 bass 
V:1
"^Andante" z | z6 | z2 z z2 A | e2 f e2 B | d3/2 c/ B c2 A | c2 G c2 G | A2 z z2 A | d2 _e d2 A | %8
w: ||Wa-|rum sind denn die|Ro- sen so blass? o|sprich mein Lieb wa-|rum? wa-|rum sind denn im|
 c>_B A B2 A | G2 A _B G e | (d3 ^c2)!f! A | dc _B A G F | d c _B A2 F | d2 d ed e | %14
w: grü- * nen Gras die|blau- en Veil- chen so|stumm? _ Wa-|rum * singt denn mit so|kläg- li- chem Laut, die|Ler- che in * der|
 f3- f2"^dim." e | d2 d d c d |!p! e2 d c2 B | e2 d c2 B | A2 z z2 z | z2 z z2!p! A | %20
w: Luft _ wa-|rum steigt denn aus dem|Bal- sam kraut ver|welk- ter Blü- then|Duft?|Wa-|
!<(! e2!<)! f e2 B | d c B c2 A | c G G c G ^G | A2 z z2 A | d2 _e d2 A | c3/2 _B/ A B2 A | %26
w: rum scheint denn die|Sonn' auf die Au, so|kalt und ver- driess- lich her-|ab? wa-|rum ist denn die|Er- de so grau, und|
 G2 A _BG e | (d3 ^c2)"^cresc." A |!f! d c _B AG F | d c _B A2 F | d2!f! d ed e | %31
w: ö- de wie * ein|Grab, _ wa-|rum bin ich selbst * so|krank und so trüb? mein|lie- bes Lieb- * chen|
!f!!>(! f3-!>)! f2"_dim." e | d2 d d c d | e2 d c2!p! B | e2 d c c B | A2 z z2 z | %36
w: sprich? _ o|sprich mein herz- al- ler-|lieb- stes Lieb, wa-|rum ver- lie- ssest du|mich?|
 z2 z z2"^con espress." A | e2 f e2 B | d3/2 c/ B c2 z | z6[Q:1/4=110][Q:1/4=100] | %40
w: Wa-|rum, wa- rum ver-|lie- ssesst du mich?||
[Q:1/4=90] z6[Q:1/4=80] | z6 |] %42
w: ||
V:2
!p! e |!ped! e2 [Ef]/B/ e2 [EB]/^G/ | dc [D^GB]/E/!ped-up!!ped! [CAc]2 E/A/!ped-up! | %3
!ped! e2 E/B/ e2 E/^G/ | B2 D/E/!ped-up!!ped! c2 E/A/!ped-up! |!ped! c2 C/E/ c2 C/E/!ped-up! | %6
!ped! c2 [FB]/A/ c2 [F^c]/A/!ped-up! |!ped! d2 D/A/ d2 D/A/ | %8
 c2 [C^FA]/D/!ped-up!!ped! [B,G_B]2 [^CA]/E/!ped-up! |!ped! [DG]2 [DA]/G/ _BG [EBe]/G/!ped-up! | %10
!ped! d2 E/G/!ped-up! ^c2 [^CA]/E/ | [Fd]/A/[Gc]/A/[E_B]/G/ [CA]/F/[_B,G]/E/[A,F]/C/ | %12
 [Fd]/A/[Gc]/A/[E_B]/G/ [CA]/F/[_B,G]/E/[A,F]/C/ |!ped! d2 F/_B/!ped-up!!ped! e2 E/B/!ped-up! | %14
!ped! f2 [Fc]/A/ f2 [Fe]/A/!ped-up! |!ped! d2 D/A/ d2 D/A/!ped-up! | %16
 [Ce]/A/G/A/[Fd]/A/ [Ec]/A/^D/^F/[=DB]/^G/ | [Ce]/A/G/A/[Fd]/A/ [Ec]/A/^D/^F/[=DBe]/^G/ | %18
!ped! [CAe]2 [Ef]/A/!ped-up!!ped! e2 [DB]/E/ | dc[D^GB]/E/!ped-up!!ped! [CAc]2 E/A/!ped-up! | %20
!ped! e2 E/B/ e2 E/^G/ | B2 D/E/!ped-up!!ped! c2 E/A/!ped-up! |!ped! c2 C/E/ c2 C/E/!ped-up! | %23
!ped! c2 [FB]/A/ c2 [F^c]/A/!ped-up! |!ped! d2 D/A/ d2 D/A/ | c>_B[C^FA]/D/ [_B,G_B]2 [^CA]/E/ | %26
 [DG]2 [DA]/G/ _BG[EBe]/G/ | d2 E/G/ ^c2 [^CA]/E/!ped-up! | %28
 [Fd]/A/[Gc]/A/[E_B]/G/ [CA]/F/[_B,G]/E/[A,F]/C/ | %29
 [Fd]/A/[Gc]/A/[E_B]/G/ [CA]/F/[_B,G]/E/[A,F]/C/ | d2 F/_B/ e2 E/B/ | %31
!ped! [Af]2 [Fc]/A/ f2 [Fe]/A/!ped-up! | d2 D/A/ d2 D/A/ | %33
 [Ce]/A/G/A/[Fd]/A/ [Ec]/A/^D/^F/[=DB]/^G/ | [Ce]/A/G/A/[Fd]/A/ [Ec]/A/^D/^F/[=DBe]/^G/ | %35
!ped! [CAe]2 !>![Ef]/A/!ped-up!!ped! e2 [DB]/E/ | dc [D^GB]/E/!ped-up!!ped! [CAc]2 E/A/!ped-up! | %37
!ped! e2 [Ef]/B/ e2 ^G/E/ | d>c [D^GB]/E/!ped-up!!ped! [CAc]2 A/E/!ped-up! | %39
!ped! d>c [D^GB]/E/ d>c [DGB]/E/!ped-up! |!ped! c2 C/!pp!E/ .A.c.e | !fermata!a3!ped-up! z2 z |] %42
V:3
 z | ^G,,/^G,/B,/D/ z G,,/G,/B,/D/ z | E,,/E,/^G,/B,/ z A,,/E,/A,/C/ z | %3
 ^G,,/^G,/B,/D/ z G,,/G,/B,/D/ z | E,,/E,/^G,/B,/ z E,,/E,/A,/C/ z | %5
 E,,/E,/G,/_B,/ z E,,/E,/G,/B,/ z | F,,/F,/A,/C/ z F,,/F,/A,/C/ z | %7
 ^F,,/^F,/A,/C/ z F,,/F,/A,/C/ z | D,,/D,/^F,/A,/ z G,,/D,/G,/D/ [A,,A,] | %9
 _B,,/D,/G,/_B,/ z G,,/E,/G,/B,/ z | A,,/E,/G,/A,/ z A,,/E,/G,/!f!A,/ z | %11
 [D,,D,][E,,E,][C,,C,] [F,,F,]3 | [D,,D,][E,,E,][C,,C,] [F,,F,]3 | %13
!f! _B,,/F,/_B,/D/ z G,,/G,/B,/C/ z | F,,/F,/A,/C/ z F,,/F,/A,/"^dim."C/ z | %15
!p! F,,/F,/A,/B,/ z F,,/F,/A,/B,/ z |!p! [E,,E,]6 | [E,,E,]6 | %18
!p! A,,/E,/A,/C/ z ^G,,/E,/^G,/B,/ z | E,,/E,/^G,/B,/ z A,,/E,/A,/C/ z | %20
 ^G,,/^G,/B,/D/ z G,,/G,/B,/D/ z | E,,/E,/^G,/B,/ z E,,/E,/A,/C/ z | %22
 E,,/E,/G,/_B,/ z E,,/E,/G,/B,/ z | F,,/F,/A,/C/ z F,,/F,/A,/C/ z | %24
 ^F,,/^F,/A,/C/ z F,,/F,/A,/C/ z | D,,/D,/^F,/A,/ z G,,/D,/G,/D/ [A,,A,] | %26
 _B,,/D,/G,/_B,/ z G,,/E,/G,/B,/ z | A,,/E,/G,/A,/ z A,,/E,/G,/A,/ z | %28
!f! [D,,D,][E,,E,][C,,C,] [F,,F,]3 | [D,,D,][E,,E,][C,,C,] [F,,F,]3 | %30
!f! _B,,/F,/_B,/D/ z G,,/G,/B,/C/ z | F,,/F,/A,/C/ z F,,/F,/A,/"^dim."C/ z | %32
!p! F,,/F,/A,/B,/ z F,,/F,/A,/B,/ z | [E,,E,]6 | [E,,E,]6 | A,,/E,/A,/C/ z ^G,,/E,/^G,/B,/ z | %36
 E,,/E,/^G,/B,/ z A,,/E,/A,/C/ z | ^G,,/^G,/B,/D/ z G,,/G,/B,/D/ z | %38
 E,,/E,/^G,/B,/ z E,,/E,/A,/C/ z | E,,/E,/"^dim."^G,/B,/ z E,,/E,/G,/B,/ z | A,,,/A,,/E,/A,/ x4 | %41
 x6 |] %42

